printrun/assets/toolbar/layer_up_w.svg

<?xml version="1.0" encoding="UTF-8"?>
<svg id="icon" xmlns="http://www.w3.org/2000/svg" width="128" height="128" viewBox="0 0 128 128">
  <path d="M111.386,58.698l-26.049-12.845c-.99-.488-2.149.232-2.149,1.336v6.59c0,.567.322,1.085.831,1.336l23.433,11.558c.904.447,1.043,1.242,1.043,1.679s-.129,1.222-1.033,1.679l-41.457,20.589c-1.232.616-2.712.616-3.943,0l-41.516-20.47c-.904-.447-1.043-1.242-1.043-1.669,0-.437.139-1.232,1.043-1.679l23.437-11.647c.507-.252.827-.769.827-1.334v-6.596c0-1.106-1.162-1.826-2.152-1.334l-26.075,12.946c-3.695,1.828-5.979,5.532-5.979,9.654.01,4.132,2.314,7.817,6.009,9.644l41.507,20.47c1.857.914,3.883,1.371,5.91,1.371s4.072-.467,5.929-1.39l41.457-20.589c3.695-1.837,5.979-5.532,5.979-9.654-.01-4.132-2.314-7.827-6.009-9.644Z" style="fill: #dfe2e5;"/>
  <path d="M113.189,87.21l-47.2,23.433c-1.245.623-2.683.625-3.938.009l-47.253-23.313c-2.203-1.082-4.873-.183-5.958,2.022-1.088,2.203-.183,4.869,2.022,5.96l47.258,23.315c1.851.91,3.875,1.364,5.897,1.364,2.045,0,4.087-.465,5.942-1.394l47.187-23.426c2.203-1.093,3.102-3.762,2.006-5.964-1.094-2.2-3.766-3.106-5.964-2.004h0Z" style="fill: #dfe2e5;"/>
  <path d="M61.333,9.185c1.347-1.572,3.776-1.582,5.136-.021l20.157,23.123c.426.512.593,1.018.593,1.617,0,.339-.08.679-.253,1.018-.426.852-1.278,1.45-2.21,1.45h-9.714c-.552,0-1,.448-1,1v29.042c0,1.36-1.103,2.463-2.463,2.463h-15.232c-1.36,0-2.463-1.103-2.463-2.463v-28.875c0-.552-.448-1-1-1h-9.721c-.663,0-1.282-.298-1.741-.779-.425-.446-.655-1.06-.641-1.676.013-.582.216-1.139.598-1.625l19.953-23.274Z" style="fill: #dfe2e5;"/>
</svg>

<?xml version="1.0" encoding="UTF-8" standalone="no"?>
<!DOCTYPE svg PUBLIC "-//W3C//DTD SVG 1.1//EN" "http://www.w3.org/Graphics/SVG/1.1/DTD/svg11.dtd">
<svg width="100%" height="100%" viewBox="0 0 128 128" version="1.1" xmlns="http://www.w3.org/2000/svg" xmlns:xlink="http://www.w3.org/1999/xlink" xml:space="preserve" xmlns:serif="http://www.serif.com/" style="fill-rule:evenodd;clip-rule:evenodd;stroke-linejoin:round;stroke-miterlimit:2;">
    <path d="M111.39,58.7L85.34,45.85C84.35,45.36 83.19,46.08 83.19,47.19L83.19,53.78C83.19,54.35 83.51,54.87 84.02,55.12L107.45,66.68C108.35,67.13 108.49,67.92 108.49,68.36C108.49,68.8 108.36,69.58 107.46,70.04L66,90.63C64.77,91.25 63.29,91.25 62.06,90.63L20.54,70.16C19.64,69.71 19.5,68.92 19.5,68.49C19.5,68.06 19.64,67.26 20.54,66.81L43.98,55.16C44.49,54.91 44.81,54.39 44.81,53.83L44.81,47.23C44.81,46.12 43.65,45.4 42.66,45.9L16.59,58.85C12.9,60.68 10.61,64.38 10.61,68.5C10.61,72.63 12.92,76.32 16.62,78.14L58.13,98.61C59.99,99.52 62.01,99.98 64.04,99.98C66.07,99.98 68.11,99.51 69.97,98.59L111.43,78C115.12,76.16 117.41,72.47 117.41,68.35C117.41,64.22 115.1,60.52 111.4,58.71L111.39,58.7Z" style="fill:white;fill-rule:nonzero;"/>
    <path d="M113.19,87.21L65.99,110.64C64.74,111.26 63.31,111.26 62.05,110.64L14.8,87.33C12.6,86.25 9.93,87.15 8.84,89.35C7.75,91.55 8.66,94.22 10.86,95.31L58.12,118.62C59.97,119.53 62,119.98 64.02,119.98C66.04,119.98 68.11,119.52 69.96,118.59L117.15,95.16C119.35,94.07 120.25,91.4 119.16,89.2C118.07,87 115.39,86.09 113.2,87.2L113.19,87.21Z" style="fill:white;fill-rule:nonzero;"/>
    <path d="M61.33,9.19C62.68,7.62 65.11,7.61 66.47,9.17L86.63,32.29C87.06,32.8 87.22,33.31 87.22,33.91C87.22,34.25 87.14,34.59 86.97,34.93C86.54,35.78 85.69,36.38 84.76,36.38L74.05,36.38L74.05,66.42C74.05,67.78 72.95,68.88 71.59,68.88L56.36,68.88C55,68.88 53.9,67.78 53.9,66.42L53.9,36.55L43.18,36.55C42.52,36.55 41.9,36.25 41.44,35.77C41.01,35.32 40.78,34.71 40.8,34.09C40.81,33.51 41.02,32.95 41.4,32.47L61.35,9.2L61.33,9.19Z" style="fill:white;fill-rule:nonzero;"/>
</svg>
